logos/hotjar.svg

<?xml version="1.0" encoding="UTF-8"?>
<svg width="512px" height="133px" viewBox="0 0 512 133" version="1.1" xmlns="http://www.w3.org/2000/svg" preserveAspectRatio="xMidYMid">
    <title>Hotjar</title>
    <g>
        <path d="M133.964122,100.262314 L133.964122,0.144276645 L149.519113,0.144276645 L149.519113,39.614931 C154.417585,32.3190176 161.764742,28.6697385 171.559482,28.6671488 C179.914435,28.6671488 186.372815,31.139913 190.935171,36.0854413 C195.497528,41.0310248 197.779808,47.9217259 197.779808,56.7573795 L197.779808,100.262314 L182.224266,100.262314 L182.224266,58.9184378 C182.224266,47.4913326 177.134043,41.7771464 166.953596,41.7756035 C161.862271,41.7756035 157.68507,43.312203 154.421442,46.385402 C151.158365,49.4586009 149.524623,53.7803317 149.521868,59.350429 L149.521868,100.261212 L133.964122,100.262314 Z M271.293808,91.6213872 C264.379193,98.5360022 255.688675,101.993034 245.220602,101.993034 C234.753079,101.993034 226.037766,98.5360022 219.074111,91.6213872 C212.111007,84.7062213 208.630282,75.9176239 208.630282,65.255044 C208.630282,54.5932356 212.112109,45.8304255 219.074111,38.9669441 C226.036664,32.1018649 234.751977,28.6685814 245.220602,28.6669825 C255.689226,28.6654407 264.380295,32.0987793 271.293808,38.9669441 C278.209525,45.834558 281.666557,54.5973682 281.666557,65.255044 C281.666557,75.9132158 278.208423,84.7018132 271.293808,91.6213872 Z M230.455207,82.8327898 C234.149724,87.1543553 239.07189,89.3154136 245.220602,89.3154136 C251.369865,89.3154136 256.291479,87.1543553 259.985996,82.8327898 C263.681615,78.5112244 265.530251,72.6523431 265.531904,65.255044 C265.531904,57.9574776 263.659575,52.1471403 259.914365,47.8248585 C256.169155,43.5025767 251.271234,41.3416838 245.220602,41.3422346 C239.073543,41.3422346 234.151377,43.4789935 230.455207,47.752511 C226.758486,52.0260836 224.90985,57.859398 224.908748,65.252289 C224.908748,72.6523431 226.757384,78.5123264 230.455207,82.8327898 Z M367.760649,30.3958301 L367.760649,111.06485 C367.760649,118.555821 365.912013,123.957916 362.21419,127.270583 C358.516918,130.583802 353.788157,132.240686 348.027906,132.24234 C341.113291,132.24234 335.398774,130.321521 330.885457,126.479885 L336.647912,114.235358 C339.433815,117.498985 342.458856,119.132177 345.723585,119.135483 C350.0446,119.135483 352.205107,116.350682 352.205107,110.78053 L352.205107,30.3958301 L367.760649,30.3958301 Z M311.910352,9.80004137 L311.910352,30.3959954 L339.712626,30.3959954 L339.712626,43.504395 L311.911454,43.504395 L311.911454,78.5101223 C311.911454,84.9453593 314.264264,88.1627022 318.969883,88.1621512 C323.386222,88.1621512 327.371672,84.1282126 330.926232,76.0608863 L343.027497,82.2558832 C337.071638,95.4139838 328.620258,101.991932 317.673358,101.99083 C303.362546,101.99083 296.20714,94.3075573 296.20714,78.9415626 L296.20714,43.504395 L285.405706,43.504395 L285.405706,30.3959954 L296.641886,30.3959954 L300.243834,9.80004137 L311.910352,9.80004137 Z M359.94844,0 C362.493001,0 364.946645,0.950309494 366.827239,2.66472516 C367.742466,3.51912009 368.466492,4.55799291 368.950829,5.71276502 C369.434615,6.86745998 369.668794,8.11180415 369.636284,9.36358695 C369.658876,10.5927233 369.420289,11.8126026 368.935952,12.9425022 C368.451615,14.0724017 367.733098,15.0865342 366.827239,15.9177868 C365.918074,16.7905303 364.84581,17.4751593 363.671609,17.9323868 C362.497409,18.3896693 361.244414,18.6105689 359.984255,18.5824124 C357.427022,18.6691963 354.939766,17.7367234 353.069641,15.9901343 C352.169842,15.1423515 351.461245,14.1131764 350.989581,12.970824 C350.517917,11.8284717 350.294207,10.5988946 350.333329,9.36358695 C350.298615,8.11814076 350.524529,6.87919648 350.995642,5.72582394 C351.466755,4.57241282 352.173148,3.52987579 353.069641,2.66472516 C354.950235,0.950309494 357.403328,0 359.94844,0 Z M406.398519,101.991382 C398.425966,101.991382 391.967036,99.9983807 387.02283,96.0134819 C382.078073,92.0280321 379.605695,86.6755283 379.604593,79.9548686 C379.604593,73.8089115 382.173398,68.5980171 387.311559,64.3216344 C392.449169,60.0458027 398.907548,57.9089888 406.686146,57.9117439 C414.657596,57.9117439 421.38046,60.4568556 426.854186,65.5470789 L426.854186,57.0466594 C426.854186,52.0544605 425.581355,48.1890205 423.036243,45.4502291 C420.49058,42.7114927 416.86549,41.342896 412.160974,41.3444388 C402.653309,41.3444388 396.747041,46.1940365 394.441618,55.893397 L380.179846,52.8685216 C382.09846,45.3781571 385.892159,39.4721094 391.560942,35.1503235 C397.229725,30.8285376 404.288154,28.6676998 412.736227,28.6676998 C421.956816,28.6676998 429.231791,31.0927466 434.561152,35.9428952 C439.890514,40.7929888 442.555194,47.8753309 442.556296,57.1899218 L442.556296,100.262865 L427.429991,100.262865 L427.429991,91.4742678 C422.338665,98.4864114 415.328175,101.992483 406.398519,101.991382 Z M409.275889,90.4670231 C416.191606,90.4670231 422.050487,87.0099909 426.853635,80.0959269 L426.853635,77.9326647 C422.049936,72.170761 416.191055,69.2895337 409.275889,69.2900847 C405.243053,69.2900847 401.97667,70.2752892 399.47619,72.2456983 C398.294275,73.1162929 397.337723,74.256882 396.68643,75.5726921 C396.034586,76.8879511 395.707287,78.3404115 395.730429,79.8077491 C395.692409,81.291066 396.005934,82.7622607 396.644002,84.1017641 C397.282622,85.4407166 398.228705,86.6105092 399.404559,87.5147154 C401.586065,89.2647207 404.429328,90.2367282 407.933958,90.4307381 L409.275889,90.4670231 Z M457.693071,100.262314 L457.693071,30.395775 L472.818826,30.395775 L472.818826,42.4961583 C476.658809,33.6613313 483.285246,29.2431188 492.698688,29.2431188 C498.266637,29.2431188 502.87638,31.0677308 506.527918,34.7170099 C510.179457,38.366289 512.003297,43.2640999 512,49.4104978 C511.96142,53.0891457 511.329413,56.7375432 510.127662,60.2144115 L495.86644,58.7740733 C496.159026,56.8648263 496.350778,54.9416388 496.441694,53.012335 C496.441694,45.8097075 493.465142,42.2081458 487.511487,42.2076499 C483.476998,42.2076499 480.091597,44.3444086 477.355285,48.6179261 C474.619524,52.8914987 473.250266,58.5338333 473.249164,65.5454259 L473.249164,100.262314 L457.693071,100.262314 Z" fill="#323232"></path>
        <path d="M89.3103329,35.1850371 C89.3103329,53.6986093 81.0582424,63.4495869 72.1084792,69.863483 L70.3695838,71.0646691 L70.3695838,71.0646691 L68.6254366,72.1912566 L68.6254366,72.1912566 L66.8882095,73.2519874 L66.8882095,73.2519874 L65.1700743,74.2556032 L65.1700743,74.2556032 L58.673072,77.9016353 C58.3348715,78.094826 58.0013619,78.2871779 57.6726827,78.4792025 L55.759688,79.631517 C48.966093,83.8722886 44.6454041,88.44995 44.2825343,98.8123423 L44.2577235,100.261763 L25.0321845,100.261763 C25.0321845,82.3456336 32.7623197,72.6351909 41.372304,66.2140773 L43.1040025,64.9722556 C43.3938975,64.7721094 43.6842628,64.5752538 43.9748445,64.3815067 L45.7189026,63.2548703 L45.7189026,63.2548703 L47.4559777,62.1940989 L47.4559777,62.1940989 L50.8604655,60.2351902 L50.8604655,60.2351902 L55.6702047,57.544609 L55.6702047,57.544609 L57.6419979,56.3915565 C64.9762084,51.9786926 69.6814396,47.4678674 70.0608092,36.634458 L70.0856204,35.1850371 L89.3103329,35.1850371 Z M64.2796361,0.144276645 C64.2796361,18.059053 56.5510833,27.7697035 47.9409892,34.191029 L46.2092453,35.4328927 C45.9193385,35.6330457 45.6289595,35.8299081 45.3383618,36.0236617 L43.5941795,37.150335 L43.5941795,37.150335 L41.8569207,38.2111366 L41.8569207,38.2111366 L38.451863,40.1700741 L38.451863,40.1700741 L33.6416986,42.8609256 L33.6416986,42.8609256 L31.6698939,44.0141316 C31.3510137,44.2060189 31.0371033,44.3980905 30.7283024,44.5908579 L28.9379245,45.7599066 C23.1818103,49.7118595 19.5810028,54.351491 19.2511212,63.7719895 L19.2263104,65.2214325 L0,65.2214325 C0,46.1104842 8.79346714,36.3375235 18.0705065,29.9326201 L19.8135895,28.7697126 L19.8135895,28.7697126 L21.5558334,27.6769989 L21.5558334,27.6769989 L23.2850657,26.6457341 L23.2850657,26.6457341 L30.6380476,22.5037971 L30.6380476,22.5037971 L32.6098524,21.3506034 C39.9440978,16.9372478 44.6492612,12.4264974 45.0286251,1.59362487 L45.0534359,0.144276645 L64.2796361,0.144276645 Z" fill="#FF3C00"></path>
    </g>
</svg>

<svg preserveAspectRatio="xMidYMid" viewBox="0 0 512 133" xmlns="http://www.w3.org/2000/svg">
  <path fill="#323232" d="M133.964 100.262V.144h15.555v39.47c4.899-7.295 12.246-10.944 22.04-10.947 8.355 0 14.814 2.473 19.376 7.418 4.563 4.946 6.845 11.837 6.845 20.672v43.505h-15.556V58.918c0-11.427-5.09-17.14-15.27-17.142-5.092 0-9.269 1.536-12.533 4.61-3.263 3.073-4.896 7.394-4.9 12.964v40.911l-15.557.001Zm137.33-8.64c-6.915 6.914-15.605 10.371-26.073 10.371s-19.183-3.457-26.147-10.372c-6.963-6.915-10.444-15.703-10.444-26.366 0-10.662 3.482-19.425 10.444-26.288 6.963-6.865 15.678-10.298 26.147-10.3 10.468-.002 19.16 3.432 26.073 10.3 6.916 6.868 10.373 15.63 10.373 26.288s-3.459 19.447-10.373 26.366Zm-40.839-8.79c3.695 4.322 8.617 6.483 14.766 6.483 6.149 0 11.07-2.16 14.765-6.482 3.696-4.322 5.544-10.18 5.546-17.578 0-7.298-1.872-13.108-5.618-17.43-3.745-4.322-8.643-6.483-14.693-6.483-6.147 0-11.07 2.137-14.766 6.41-3.697 4.274-5.545 10.107-5.546 17.5 0 7.4 1.848 13.26 5.546 17.58Zm137.306-52.436v80.669c0 7.49-1.849 12.893-5.547 16.206-3.697 3.313-8.426 4.97-14.186 4.971-6.915 0-12.63-1.92-17.143-5.762l5.763-12.245c2.786 3.264 5.81 4.897 9.076 4.9 4.32 0 6.481-2.784 6.481-8.354V30.396h15.556ZM311.91 9.8v20.596h27.802v13.108H311.91V78.51c0 6.435 2.353 9.653 7.059 9.652 4.416 0 8.402-4.034 11.956-12.101l12.101 6.195c-5.955 13.158-14.407 19.736-25.354 19.735-14.31 0-21.466-7.683-21.466-23.05V43.505h-10.801V30.396h11.236L300.244 9.8h11.666ZM359.947 0c2.545 0 4.999.95 6.88 2.665a8.856 8.856 0 0 1 2.808 6.699 8.679 8.679 0 0 1-2.809 6.554 9.572 9.572 0 0 1-6.843 2.664 9.651 9.651 0 0 1-6.914-2.592 8.72 8.72 0 0 1-2.737-6.626 8.96 8.96 0 0 1 2.737-6.7A10.21 10.21 0 0 1 359.948 0Zm46.45 101.991c-7.972 0-14.431-1.993-19.375-5.978-4.945-3.985-7.417-9.337-7.418-16.058 0-6.146 2.568-11.357 7.707-15.633 5.137-4.276 11.596-6.413 19.374-6.41 7.972 0 14.694 2.545 20.168 7.635v-8.5c0-4.993-1.273-8.858-3.818-11.597-2.545-2.739-6.17-4.107-10.875-4.106-9.508 0-15.414 4.85-17.72 14.55l-14.261-3.025c1.918-7.49 5.712-13.397 11.38-17.719 5.67-4.321 12.728-6.482 21.176-6.482 9.22 0 16.496 2.425 21.825 7.275 5.33 4.85 7.994 11.932 7.995 21.247v43.073H427.43v-8.789c-5.091 7.012-12.102 10.518-21.031 10.517Zm2.878-11.524c6.916 0 12.774-3.457 17.578-10.371v-2.163c-4.804-5.762-10.663-8.643-17.578-8.643-4.033 0-7.3.985-9.8 2.956a9.202 9.202 0 0 0-3.746 7.562 9.424 9.424 0 0 0 3.675 7.707c2.181 1.75 5.024 2.722 8.529 2.916l1.342.036Zm48.417 9.795V30.396h15.126v12.1c3.84-8.835 10.466-13.253 19.88-13.253 5.568 0 10.177 1.825 13.829 5.474 3.651 3.65 5.475 8.547 5.472 14.693a34.17 34.17 0 0 1-1.872 10.804l-14.262-1.44c.293-1.91.485-3.832.576-5.762 0-7.202-2.977-10.804-8.93-10.804-4.035 0-7.42 2.136-10.157 6.41-2.735 4.273-4.105 9.916-4.106 16.927v34.717h-15.556Z"/>
  <path fill="#FF3C00" d="M89.31 35.185c0 18.514-8.252 28.265-17.202 34.678l-1.738 1.202-1.745 1.126-1.737 1.061-1.718 1.004-6.497 3.646c-.338.193-.672.385-1 .577l-1.913 1.153c-6.794 4.24-11.115 8.818-11.477 19.18l-.025 1.45H25.032c0-17.916 7.73-27.627 16.34-34.048l1.732-1.242c.29-.2.58-.397.87-.59l1.745-1.127 1.737-1.06 3.404-1.96 4.81-2.69 1.972-1.153c7.334-4.413 12.04-8.924 12.419-19.758l.025-1.449H89.31ZM64.28.145c0 17.914-7.729 27.625-16.339 34.046l-1.732 1.242c-.29.2-.58.397-.87.59l-1.745 1.127-1.737 1.061-3.405 1.96-4.81 2.69-1.972 1.153c-.319.192-.633.384-.942.577l-1.79 1.169c-5.756 3.952-9.357 8.591-9.687 18.012l-.025 1.45H0c0-19.112 8.793-28.884 18.07-35.29l1.744-1.162 1.742-1.093 1.73-1.031 7.352-4.142 1.972-1.153c7.334-4.414 12.04-8.925 12.419-19.757l.024-1.45H64.28Z"/>
</svg>
